files/en-us/learn/javascript/client-side_web_apis/fetching_data/fetch-update.svg

<svg xmlns="http://www.w3.org/2000/svg" xmlns:xlink="http://www.w3.org/1999/xlink" width="652" height="301" viewBox="-0.5 -0.5 652 301"><path fill="none" pointer-events="all" d="M78 0h98v98H78z"/><path d="M162.2 81.77v-6.61h-16.23v-3.79h27.55c.99 0 1.79-.73 1.79-1.63V1.64c0-.91-.8-1.64-1.79-1.64H80.14c-.99 0-1.79.73-1.79 1.64v68.09c0 .91.8 1.63 1.79 1.63h27.88v3.79H91.8v6.61L78 90.75V98h98v-7.25l-13.8-8.98zM84.9 64.93V5.92c0-.78.69-1.41 1.53-1.41h80.43c.85 0 1.54.63 1.54 1.41v59.01c0 .78-.7 1.41-1.54 1.41H86.44c-.85 0-1.54-.64-1.54-1.41zm-2.08 25.5 12.44-8.03h63.48l12.42 8.03H82.82z" pointer-events="all"/><path fill="#FFF" stroke="#000" stroke-width="5" pointer-events="all" d="M529 9h120v60H529z"/><path d="M541 18v10m20-10v10m-10-10v10" fill="none" stroke="#000" stroke-width="5" stroke-miterlimit="10" pointer-events="stroke"/><path d="M128 123h451.76" fill="none" stroke="#000" stroke-width="2" stroke-miterlimit="10" pointer-events="stroke"/><path d="m585.76 123-8 4 2-4-2-4z" stroke="#000" stroke-width="2" stroke-miterlimit="10" pointer-events="all"/><switch transform="translate(-.5 -.5)"><foreignObject style="overflow:visible;text-align:left" pointer-events="none" width="100%" height="100%" requiredFeatures="http://www.w3.org/TR/SVG11/feature#Extensibility"><div xmlns="http://www.w3.org/1999/xhtml" style="display:flex;align-items:unsafe center;justify-content:unsafe center;width:1px;height:1px;padding-top:124px;margin-left:365px"><div style="box-sizing:border-box;font-size:0;text-align:center" data-drawio-colors="color: rgb(0, 0, 0); background-color: rgb(255, 255, 255);"><div style="display:inline-block;font-size:11px;font-family:Helvetica;color:#000;line-height:1.2;pointer-events:all;background-color:#fff;white-space:nowrap"><font style="font-size:16px">Request page (HTML, JS, CSS, ...)</font><font style="font-size:15px"/></div></div></div></foreignObject><text x="365" y="127" font-family="Helvetica" font-size="11" text-anchor="middle"> Request page (HTML, JS, CSS, ...) </text></switch><path d="M128 200h451.76" fill="none" stroke="#000" stroke-width="2" stroke-miterlimit="10" pointer-events="stroke"/><path d="m585.76 200-8 4 2-4-2-4z" stroke="#000" stroke-width="2" stroke-miterlimit="10" pointer-events="all"/><switch transform="translate(-.5 -.5)"><foreignObject style="overflow:visible;text-align:left" pointer-events="none" width="100%" height="100%" requiredFeatures="http://www.w3.org/TR/SVG11/feature#Extensibility"><div xmlns="http://www.w3.org/1999/xhtml" style="display:flex;align-items:unsafe center;justify-content:unsafe center;width:1px;height:1px;padding-top:201px;margin-left:365px"><div style="box-sizing:border-box;font-size:0;text-align:center" data-drawio-colors="color: rgb(0, 0, 0); background-color: rgb(255, 255, 255);"><div style="display:inline-block;font-size:11px;font-family:Helvetica;color:#000;line-height:1.2;pointer-events:all;background-color:#fff;white-space:nowrap"><font style="font-size:16px">Request data</font><font style="font-size:15px"/></div></div></div></foreignObject><text x="365" y="204" font-family="Helvetica" font-size="11" text-anchor="middle"> Request data  
</text></switch><path d="M126.5 298V98M588 290V69" fill="none" stroke="#000" stroke-width="3" stroke-miterlimit="10" stroke-dasharray="9 9" pointer-events="stroke"/><path d="M588 150H136.24" fill="none" stroke="#000" stroke-width="2" stroke-miterlimit="10" pointer-events="stroke"/><path d="m130.24 150 8-4-2 4 2 4z" stroke="#000" stroke-width="2" stroke-miterlimit="10" pointer-events="all"/><switch transform="translate(-.5 -.5)"><foreignObject style="overflow:visible;text-align:left" pointer-events="none" width="100%" height="100%" requiredFeatures="http://www.w3.org/TR/SVG11/feature#Extensibility"><div xmlns="http://www.w3.org/1999/xhtml" style="display:flex;align-items:unsafe center;justify-content:unsafe center;width:1px;height:1px;padding-top:151px;margin-left:353px"><div style="box-sizing:border-box;font-size:0;text-align:center" data-drawio-colors="color: rgb(0, 0, 0); background-color: rgb(255, 255, 255);"><div style="display:inline-block;font-size:11px;font-family:Helvetica;color:#000;line-height:1.2;pointer-events:all;background-color:#fff;white-space:nowrap"><font style="font-size:15px"/></div></div></div></foreignObject></switch><path d="M588 230H136.24" fill="none" stroke="#000" stroke-width="2" stroke-miterlimit="10" pointer-events="stroke"/><path d="m130.24 230 8-4-2 4 2 4z" stroke="#000" stroke-width="2" stroke-miterlimit="10" pointer-events="all"/><switch transform="translate(-.5 -.5)"><foreignObject style="overflow:visible;text-align:left" pointer-events="none" width="100%" height="100%" requiredFeatures="http://www.w3.org/TR/SVG11/feature#Extensibility"><div xmlns="http://www.w3.org/1999/xhtml" style="display:flex;align-items:unsafe center;justify-content:unsafe center;width:1px;height:1px;padding-top:231px;margin-left:353px"><div style="box-sizing:border-box;font-size:0;text-align:center" data-drawio-colors="color: rgb(0, 0, 0); background-color: rgb(255, 255, 255);"><div style="display:inline-block;font-size:11px;font-family:Helvetica;color:#000;line-height:1.2;pointer-events:all;background-color:#fff;white-space:nowrap"><font style="font-size:15px"/></div></div></div></foreignObject></switch><path d="M8 180h101.76" fill="none" stroke="#000" stroke-width="2" stroke-miterlimit="10" pointer-events="stroke"/><path d="m115.76 180-8 4 2-4-2-4z" stroke="#000" stroke-width="2" stroke-miterlimit="10" pointer-events="all"/><switch transform="translate(-.5 -.5)"><foreignObject style="overflow:visible;text-align:left" pointer-events="none" width="100%" height="100%" requiredFeatures="http://www.w3.org/TR/SVG11/feature#Extensibility"><div xmlns="http://www.w3.org/1999/xhtml" style="display:flex;align-items:unsafe center;justify-content:unsafe center;width:1px;height:1px;padding-top:181px;margin-left:65px"><div style="box-sizing:border-box;font-size:0;text-align:center" data-drawio-colors="color: rgb(0, 0, 0); background-color: rgb(255, 255, 255);"><div style="display:inline-block;font-size:11px;font-family:Helvetica;color:#000;line-height:1.2;pointer-events:all;background-color:#fff;white-space:nowrap"><font style="font-size:15px"/></div></div></div></foreignObject></switch><switch transform="translate(-.5 -.5)"><foreignObject style="overflow:visible;text-align:left" pointer-events="none" width="100%" height="100%" requiredFeatures="http://www.w3.org/TR/SVG11/feature#Extensibility"><div xmlns="http://www.w3.org/1999/xhtml" style="display:flex;align-items:unsafe center;justify-content:unsafe center;width:1px;height:1px;padding-top:180px;margin-left:57px"><div style="box-sizing:border-box;font-size:0;text-align:center" data-drawio-colors="color: rgb(0, 0, 0); background-color: rgb(255, 255, 255);"><div style="display:inline-block;font-size:16px;font-family:Helvetica;color:#000;line-height:1.2;pointer-events:all;background-color:#fff;white-space:nowrap">search</div></div></div></foreignObject><text x="57" y="184" font-family="Helvetica" font-size="16" text-anchor="middle"> search  </text></switch><path d="M128 250q60 0 60 20t-51.76 20" fill="none" stroke="#000" stroke-width="2" stroke-miterlimit="10" pointer-events="stroke"/><path d="m130.24 290 8-4-2 4 2 4z" stroke="#000" stroke-width="2" stroke-miterlimit="10" pointer-events="all"/><path fill="none" pointer-events="all" d="M194 254h94v30h-94z"/><switch transform="translate(-.5 -.5)"><foreignObject style="overflow:visible;text-align:left" pointer-events="none" width="100%" height="100%" requiredFeatures="http://www.w3.org/TR/SVG11/feature#Extensibility"><div xmlns="http://www.w3.org/1999/xhtml" style="display:flex;align-items:unsafe flex-start;justify-content:unsafe flex-start;width:92px;height:1px;padding-top:261px;margin-left:196px"><div style="box-sizing:border-box;font-size:0;text-align:left" data-drawio-colors="color: rgb(0, 0, 0);"><div style="display:inline-block;font-size:16px;font-family:Helvetica;color:#000;line-height:1.2;pointer-events:all;white-space:normal;overflow-wrap:normal">update page</div></div></div></foreignObject><text x="196" y="277" font-family="Helvetica" font-size="16">update page</text></switch><switch><a transform="translate(0 -5)" xlink:href="https://www.diagrams.net/doc/faq/svg-export-text-problems" target="_blank"><text text-anchor="middle" font-size="10" x="50%" y="100%">Text is not SVG - cannot display</text></a></switch></svg>

<?xml version="1.0" encoding="UTF-8"?>
<!-- Do not edit this file with editors other than diagrams.net -->
<!DOCTYPE svg PUBLIC "-//W3C//DTD SVG 1.1//EN" "http://www.w3.org/Graphics/SVG/1.1/DTD/svg11.dtd">
<svg xmlns="http://www.w3.org/2000/svg" xmlns:xlink="http://www.w3.org/1999/xlink" version="1.1" width="652px" height="301px" viewBox="-0.5 -0.5 652 301" content="&lt;mxfile host=&quot;app.diagrams.net&quot; modified=&quot;2022-03-08T23:29:45.910Z&quot; agent=&quot;5.0 (Macintosh)&quot; etag=&quot;ZTK5n4nYRUgHch3rEAQG&quot; version=&quot;16.4.2&quot; type=&quot;device&quot;&gt;&lt;diagram id=&quot;QoJM5pJYMseBWP8EcAw-&quot; name=&quot;Page-1&quot;&gt;7Vpbj5s6EP41SO3DIgwBksdNum1VbaWqOVKfHXAAFTBrTC799ceAHS6GzaWwbZrsw2LG4/Ew38x47FgxFtHuE4GJ/xW7KFR0zd0pxgdF121DY/9zwr4kTIBVEjwSuCUJVIRl8AtxIh/nZYGL0gYjxTikQdIkOjiOkUMbNEgI3jbZ1jhszppAD0mEpQNDmfojcKlfUqemVtE/o8DzxcxA4z0RFMyckPrQxdsayXhSjAXBmJataLdAYW47YZdy3Mee3oNiBMX0lAHOp/gL3OsvZvKk28nD3LIxeOBSNjDM+AdzZeleWIDpneTNaOflCKtp4MWpSpHjqw6Okowiohhzn0YhYwKsmeAgZsSnDVMs5bR1EIYLHGJSyDS04o/RU0rwTyR6YhyzmeYbRGjAIHiGKxR+w2lAAxyz7hWmFEc1hseQ6cI6KE4YFfI3B8WlTulPRJ0chHwm/qFsJNr1WhAccGH+jHCEKNkzFj5gxpHkrjzlr9vKL2bTkuTXXELQIPdE7yC3Aos1OF5nYKcfx47gLHaRy02w9QOKlgl08t4tA7OJW4mF8HJzGJuZE9A02kwyGhARUreapY1kNeO41VDsPuapo/LImpWaJu2zGXKltHLUYjWTmB0WETSCQkiDTVN8l5n4DN/ycKwBYhoNQNrumeKMOIgPqqeTI3KA1hJEIfEQlQQVoB2++nIcJ7eOoz0QjvafxdG8dRytgXC0/iyO1lk4OiFM08A5HUr9CqAEk2aBoGvGZVha2hFBI2Npd2BphTSv43ChZwWq9ZJh0fGQFuX7I2MAVrKrOlnL408Y5VVHvErzx3f0kqGUijJc1959/u/rs6IzrbUvy/K5WPKGqqrvlbxUKDVhH1YqcxB9noJmj4KFlBVpU6Tp2r7NvLKoV5suLdWk7dI1Clw3lzEniCkHV4U8TVTRBdzmXDE/vFaN8b0PH6wcdhz1wOiP2d7STVM1faL/XmQIFrxep2gUX53e846Ud6at4vnivNMWNHLemb153nEhhWNnlMbUtQx2I0lm+g8kGXEaNVCVmoPMj7qAJaUcg1FcmPoFO7iG/GNMVbOROAz7wipWFgXaokbOQeCEI7Hbhbq9Qhj2QEsNmMzeFmb9XjdIy71xIZhSAdIWNDaYXYd69/3A2Ut1GRTXvlafdzJ4E5FtgIEiWxI0dmR3HQ/eI/v8yJ78C5F9P2M8IC5W2vbvZKcX2kcEjR3YA5wx3gNbxMS1B3bXIV7z3CRFkDh+52nK28MobeoS6ASx951Hu1aRntGaCq43B/9BU/VpI8rBX+8JXUeALYCdjGwOG+bz8v3ru/FryP9SQTbUnk3ayfcsAMzacF9j49HxyoLVrXCfXhK/3eBnjVKDQd1ORFzN7bLEhRQp4qeplg+yEM7XkCM3atru1psBTr9Po2tWy5x8u1O/hTSR3a/tJifcp2Gv1e200tLVFT/j6X8=&lt;/diagram&gt;&lt;/mxfile&gt;"><defs/><g><rect x="78" y="0" width="98" height="98" fill="none" stroke="none" pointer-events="all"/><path d="M 162.2 81.77 L 162.2 75.16 L 145.97 75.16 L 145.97 71.37 L 173.52 71.37 C 174.51 71.37 175.31 70.64 175.31 69.74 L 175.31 1.64 C 175.31 0.73 174.51 0 173.52 0 L 80.14 0 C 79.15 0 78.35 0.73 78.35 1.64 L 78.35 69.73 C 78.35 70.64 79.15 71.36 80.14 71.36 L 108.02 71.36 L 108.02 75.15 L 91.8 75.15 L 91.8 81.76 L 78 90.75 L 78 98 L 176 98 L 176 90.75 L 162.2 81.77 Z M 84.9 64.93 L 84.9 5.92 C 84.9 5.14 85.59 4.51 86.43 4.51 L 166.86 4.51 C 167.71 4.51 168.4 5.14 168.4 5.92 L 168.4 64.93 C 168.4 65.71 167.7 66.34 166.86 66.34 L 86.44 66.34 C 85.59 66.34 84.9 65.7 84.9 64.93 Z M 82.82 90.43 L 95.26 82.4 L 158.74 82.4 L 171.16 90.43 L 82.82 90.43 Z" fill="#000000" stroke="none" pointer-events="all"/><rect x="529" y="9" width="120" height="60" fill="rgb(255, 255, 255)" stroke="rgb(0, 0, 0)" stroke-width="5" pointer-events="all"/><path d="M 541 18 L 541 28" fill="none" stroke="rgb(0, 0, 0)" stroke-width="5" stroke-miterlimit="10" pointer-events="stroke"/><path d="M 561 18 L 561 28" fill="none" stroke="rgb(0, 0, 0)" stroke-width="5" stroke-miterlimit="10" pointer-events="stroke"/><path d="M 551 18 L 551 28" fill="none" stroke="rgb(0, 0, 0)" stroke-width="5" stroke-miterlimit="10" pointer-events="stroke"/><path d="M 128 123 L 579.76 123" fill="none" stroke="rgb(0, 0, 0)" stroke-width="2" stroke-miterlimit="10" pointer-events="stroke"/><path d="M 585.76 123 L 577.76 127 L 579.76 123 L 577.76 119 Z" fill="rgb(0, 0, 0)" stroke="rgb(0, 0, 0)" stroke-width="2" stroke-miterlimit="10" pointer-events="all"/><g transform="translate(-0.5 -0.5)"><switch><foreignObject style="overflow: visible; text-align: left;" pointer-events="none" width="100%" height="100%" requiredFeatures="http://www.w3.org/TR/SVG11/feature#Extensibility"><div xmlns="http://www.w3.org/1999/xhtml" style="display: flex; align-items: unsafe center; justify-content: unsafe center; width: 1px; height: 1px; padding-top: 124px; margin-left: 365px;"><div style="box-sizing: border-box; font-size: 0px; text-align: center;" data-drawio-colors="color: rgb(0, 0, 0); background-color: rgb(255, 255, 255); "><div style="display: inline-block; font-size: 11px; font-family: Helvetica; color: rgb(0, 0, 0); line-height: 1.2; pointer-events: all; background-color: rgb(255, 255, 255); white-space: nowrap;"><font style="font-size: 16px"> Request page (HTML, JS, CSS, ...) </font><font style="font-size: 15px"><br /></font></div></div></div></foreignObject><text x="365" y="127" fill="rgb(0, 0, 0)" font-family="Helvetica" font-size="11px" text-anchor="middle"> Request page (HTML, JS, CSS, ...) </text></switch></g><path d="M 128 200 L 579.76 200" fill="none" stroke="rgb(0, 0, 0)" stroke-width="2" stroke-miterlimit="10" pointer-events="stroke"/><path d="M 585.76 200 L 577.76 204 L 579.76 200 L 577.76 196 Z" fill="rgb(0, 0, 0)" stroke="rgb(0, 0, 0)" stroke-width="2" stroke-miterlimit="10" pointer-events="all"/><g transform="translate(-0.5 -0.5)"><switch><foreignObject style="overflow: visible; text-align: left;" pointer-events="none" width="100%" height="100%" requiredFeatures="http://www.w3.org/TR/SVG11/feature#Extensibility"><div xmlns="http://www.w3.org/1999/xhtml" style="display: flex; align-items: unsafe center; justify-content: unsafe center; width: 1px; height: 1px; padding-top: 201px; margin-left: 365px;"><div style="box-sizing: border-box; font-size: 0px; text-align: center;" data-drawio-colors="color: rgb(0, 0, 0); background-color: rgb(255, 255, 255); "><div style="display: inline-block; font-size: 11px; font-family: Helvetica; color: rgb(0, 0, 0); line-height: 1.2; pointer-events: all; background-color: rgb(255, 255, 255); white-space: nowrap;"><font style="font-size: 16px"> Request data</font><font style="font-size: 15px">  <br /></font></div></div></div></foreignObject><text x="365" y="204" fill="rgb(0, 0, 0)" font-family="Helvetica" font-size="11px" text-anchor="middle"> Request data  &#xa;</text></switch></g><path d="M 126.5 298 L 126.5 98" fill="none" stroke="rgb(0, 0, 0)" stroke-width="3" stroke-miterlimit="10" stroke-dasharray="9 9" pointer-events="stroke"/><path d="M 588 290 L 588 69" fill="none" stroke="rgb(0, 0, 0)" stroke-width="3" stroke-miterlimit="10" stroke-dasharray="9 9" pointer-events="stroke"/><path d="M 588 150 L 136.24 150" fill="none" stroke="rgb(0, 0, 0)" stroke-width="2" stroke-miterlimit="10" pointer-events="stroke"/><path d="M 130.24 150 L 138.24 146 L 136.24 150 L 138.24 154 Z" fill="rgb(0, 0, 0)" stroke="rgb(0, 0, 0)" stroke-width="2" stroke-miterlimit="10" pointer-events="all"/><g transform="translate(-0.5 -0.5)"><switch><foreignObject style="overflow: visible; text-align: left;" pointer-events="none" width="100%" height="100%" requiredFeatures="http://www.w3.org/TR/SVG11/feature#Extensibility"><div xmlns="http://www.w3.org/1999/xhtml" style="display: flex; align-items: unsafe center; justify-content: unsafe center; width: 1px; height: 1px; padding-top: 151px; margin-left: 353px;"><div style="box-sizing: border-box; font-size: 0px; text-align: center;" data-drawio-colors="color: rgb(0, 0, 0); background-color: rgb(255, 255, 255); "><div style="display: inline-block; font-size: 11px; font-family: Helvetica; color: rgb(0, 0, 0); line-height: 1.2; pointer-events: all; background-color: rgb(255, 255, 255); white-space: nowrap;"><font style="font-size: 15px"><br /></font></div></div></div></foreignObject><text x="353" y="154" fill="rgb(0, 0, 0)" font-family="Helvetica" font-size="11px" text-anchor="middle"></text></switch></g><path d="M 588 230 L 136.24 230" fill="none" stroke="rgb(0, 0, 0)" stroke-width="2" stroke-miterlimit="10" pointer-events="stroke"/><path d="M 130.24 230 L 138.24 226 L 136.24 230 L 138.24 234 Z" fill="rgb(0, 0, 0)" stroke="rgb(0, 0, 0)" stroke-width="2" stroke-miterlimit="10" pointer-events="all"/><g transform="translate(-0.5 -0.5)"><switch><foreignObject style="overflow: visible; text-align: left;" pointer-events="none" width="100%" height="100%" requiredFeatures="http://www.w3.org/TR/SVG11/feature#Extensibility"><div xmlns="http://www.w3.org/1999/xhtml" style="display: flex; align-items: unsafe center; justify-content: unsafe center; width: 1px; height: 1px; padding-top: 231px; margin-left: 353px;"><div style="box-sizing: border-box; font-size: 0px; text-align: center;" data-drawio-colors="color: rgb(0, 0, 0); background-color: rgb(255, 255, 255); "><div style="display: inline-block; font-size: 11px; font-family: Helvetica; color: rgb(0, 0, 0); line-height: 1.2; pointer-events: all; background-color: rgb(255, 255, 255); white-space: nowrap;"><font style="font-size: 15px"><br /></font></div></div></div></foreignObject><text x="353" y="234" fill="rgb(0, 0, 0)" font-family="Helvetica" font-size="11px" text-anchor="middle"></text></switch></g><path d="M 8 180 L 109.76 180" fill="none" stroke="rgb(0, 0, 0)" stroke-width="2" stroke-miterlimit="10" pointer-events="stroke"/><path d="M 115.76 180 L 107.76 184 L 109.76 180 L 107.76 176 Z" fill="rgb(0, 0, 0)" stroke="rgb(0, 0, 0)" stroke-width="2" stroke-miterlimit="10" pointer-events="all"/><g transform="translate(-0.5 -0.5)"><switch><foreignObject style="overflow: visible; text-align: left;" pointer-events="none" width="100%" height="100%" requiredFeatures="http://www.w3.org/TR/SVG11/feature#Extensibility"><div xmlns="http://www.w3.org/1999/xhtml" style="display: flex; align-items: unsafe center; justify-content: unsafe center; width: 1px; height: 1px; padding-top: 181px; margin-left: 65px;"><div style="box-sizing: border-box; font-size: 0px; text-align: center;" data-drawio-colors="color: rgb(0, 0, 0); background-color: rgb(255, 255, 255); "><div style="display: inline-block; font-size: 11px; font-family: Helvetica; color: rgb(0, 0, 0); line-height: 1.2; pointer-events: all; background-color: rgb(255, 255, 255); white-space: nowrap;"><font style="font-size: 15px"><br /></font></div></div></div></foreignObject><text x="65" y="184" fill="rgb(0, 0, 0)" font-family="Helvetica" font-size="11px" text-anchor="middle"></text></switch></g><g transform="translate(-0.5 -0.5)"><switch><foreignObject style="overflow: visible; text-align: left;" pointer-events="none" width="100%" height="100%" requiredFeatures="http://www.w3.org/TR/SVG11/feature#Extensibility"><div xmlns="http://www.w3.org/1999/xhtml" style="display: flex; align-items: unsafe center; justify-content: unsafe center; width: 1px; height: 1px; padding-top: 180px; margin-left: 57px;"><div style="box-sizing: border-box; font-size: 0px; text-align: center;" data-drawio-colors="color: rgb(0, 0, 0); background-color: rgb(255, 255, 255); "><div style="display: inline-block; font-size: 16px; font-family: Helvetica; color: rgb(0, 0, 0); line-height: 1.2; pointer-events: all; background-color: rgb(255, 255, 255); white-space: nowrap;"> search  </div></div></div></foreignObject><text x="57" y="184" fill="rgb(0, 0, 0)" font-family="Helvetica" font-size="16px" text-anchor="middle"> search  </text></switch></g><path d="M 128 250 Q 188 250 188 270 Q 188 290 136.24 290" fill="none" stroke="rgb(0, 0, 0)" stroke-width="2" stroke-miterlimit="10" pointer-events="stroke"/><path d="M 130.24 290 L 138.24 286 L 136.24 290 L 138.24 294 Z" fill="rgb(0, 0, 0)" stroke="rgb(0, 0, 0)" stroke-width="2" stroke-miterlimit="10" pointer-events="all"/><rect x="194" y="254" width="94" height="30" fill="none" stroke="none" pointer-events="all"/><g transform="translate(-0.5 -0.5)"><switch><foreignObject style="overflow: visible; text-align: left;" pointer-events="none" width="100%" height="100%" requiredFeatures="http://www.w3.org/TR/SVG11/feature#Extensibility"><div xmlns="http://www.w3.org/1999/xhtml" style="display: flex; align-items: unsafe flex-start; justify-content: unsafe flex-start; width: 92px; height: 1px; padding-top: 261px; margin-left: 196px;"><div style="box-sizing: border-box; font-size: 0px; text-align: left;" data-drawio-colors="color: rgb(0, 0, 0); "><div style="display: inline-block; font-size: 16px; font-family: Helvetica; color: rgb(0, 0, 0); line-height: 1.2; pointer-events: all; white-space: normal; overflow-wrap: normal;">update page</div></div></div></foreignObject><text x="196" y="277" fill="rgb(0, 0, 0)" font-family="Helvetica" font-size="16px">update page</text></switch></g></g><switch><g requiredFeatures="http://www.w3.org/TR/SVG11/feature#Extensibility"/><a transform="translate(0,-5)" xlink:href="https://www.diagrams.net/doc/faq/svg-export-text-problems" target="_blank"><text text-anchor="middle" font-size="10px" x="50%" y="100%">Text is not SVG - cannot display</text></a></switch></svg>
